material/.icons/material/spotlight.svg

<svg xmlns="http://www.w3.org/2000/svg" viewBox="0 0 24 24"><path d="M2 6l5.09 2.55C6.4 9.5 6 10.71 6 12s.4 2.5 1.09 3.45L2 18V6m4-3h12l-2.55 4.09C14.5 6.4 13.29 6 12 6s-2.5.4-3.45 1.09L6 3m16 3v12l-5.09-2.55C17.6 14.5 18 13.29 18 12s-.4-2.5-1.09-3.45L22 6m-4 15H6l2.55-4.09C9.5 17.6 10.71 18 12 18s2.5-.4 3.45-1.09L18 21M12 8a4 4 0 014 4 4 4 0 01-4 4 4 4 0 01-4-4 4 4 0 014-4m0 2a2 2 0 00-2 2 2 2 0 002 2 2 2 0 002-2 2 2 0 00-2-2z"/></svg>

<?xml version="1.0" encoding="UTF-8"?><!DOCTYPE svg PUBLIC "-//W3C//DTD SVG 1.1//EN" "http://www.w3.org/Graphics/SVG/1.1/DTD/svg11.dtd"><svg xmlns="http://www.w3.org/2000/svg" xmlns:xlink="http://www.w3.org/1999/xlink" version="1.1" id="mdi-spotlight" width="24" height="24" viewBox="0 0 24 24"><path d="M2,6L7.09,8.55C6.4,9.5 6,10.71 6,12C6,13.29 6.4,14.5 7.09,15.45L2,18V6M6,3H18L15.45,7.09C14.5,6.4 13.29,6 12,6C10.71,6 9.5,6.4 8.55,7.09L6,3M22,6V18L16.91,15.45C17.6,14.5 18,13.29 18,12C18,10.71 17.6,9.5 16.91,8.55L22,6M18,21H6L8.55,16.91C9.5,17.6 10.71,18 12,18C13.29,18 14.5,17.6 15.45,16.91L18,21M12,8A4,4 0 0,1 16,12A4,4 0 0,1 12,16A4,4 0 0,1 8,12A4,4 0 0,1 12,8M12,10A2,2 0 0,0 10,12A2,2 0 0,0 12,14A2,2 0 0,0 14,12A2,2 0 0,0 12,10Z" /></svg>
